!!!COM: Haydn, Franz Joseph
!!!CDT: 1732/3/31/-1809/5/31/
!!!CNT: Oesterreich
!!!OTL: String Quartet in D Major
!!!OPS: Opus 20
!!!ONM: No. 4
!!!OMD: Allegro di molto
!!!OMV: 1
!!!SCT: H III:34
!!!SCA: Thematisch-bibliographisches Werkevererzeichnis (A. van Hoboken)
!!!YOR: Altmann Edition
!!!ENC: Nestor Napoles
!!!ENC: Harmonic analysis by Nestor Napoles and Rafael Caro
!!!YEC: Copyright (c) 2017 Universitat Pompeu Fabra
!!!YEM: Rights to all derivative editions reserved.
!!!YEM: Refer to licensing agreement for further details.
!!!YEN: Barcelona, Spain
**harm	**commentary	**kern	**kern	**kern	**kern
*k[]	*k[]	*k[]	*k[]	*k[]	*k[]
*C:	*C:	*C:	*C:	*C:	*C:
*	*	*clefF4	*clefC3	*clefG2	*clefG2
*M3/4	*M3/4	*M3/4	*M3/4	*M3/4	*M3/4
*staff1/2/3/4	*	*staff1	*staff2	*staff3	*staff4
I	.	4CC'/	4C'/	4c'/	4c'/
.	.	4CC'/	4C'/	4c'/	4c'/
.	.	4CC'/	4C'/	4c'/	4c'/
=2	=2	=2	=2	=2	=2
.	.	[2.CC/	2.C/	2.c/	2.c/
=3	=3	=3	=3	=3	=3
V7	Pedal D in the bass	2.CC/_	[2.G/	2.B/	2.f/
=4	=4	=4	=4	=4	=4
I	.	2.CC/]	4G/]	4c/	4e/
viiom7	Pedal D in the bass	.	4BB/	4f/	4a\
I	.	.	4C/	4e/	4g/
=5	=5	=5	=5	=5	=5
.	.	4CC'/	4C'/	2e/	2cc\
.	.	4CC'/	4C'/	.	.
.	.	4CC'/	4C'/	16g/LL	16b\LL
.	.	.	.	16f/	16a\
.	.	.	.	16e/	16g\
.	.	.	.	16f/JJ	16a\JJ
=6	=6	=6	=6	=6	=6
.	.	4CC/	4C/	4e/	4g/
.	.	4r	4r	4r	4r
.	.	4r	4r	4r	4r
=7	=7	=7	=7	=7	=7
.	.	4CC'/	4C'/	4c'/	4c'/
.	.	4CC'/	4C'/	4c'/	4c'/
.	.	4CC'/	4C'/	4c'/	4c'/
=8	=8	=8	=8	=8	=8
.	.	[2.CC/	2.C/	[2.c/	2.c/
=9	=9	=9	=9	=9	=9
IVc	.	2.CC/_	2.F/	2.c/]	2.A/
=10	=10	=10	=10	=10	=10
I	.	2.CC/]	2E/	4c/	4G/
.	.	.	.	4G/	4c/
.	.	.	4c\	4c/	4e/
=11	=11	=11	=11	=11	=11
iii	.	4GG/	[2.G/	2e/	2g/
.	.	4AA/	.	.	.
V7b	.	4BB/	.	4d/	4f/
=12	=12	=12	=12	=12	=12
I	.	4C\	4G/]	4c/	4e/
.	.	4r	4r	4r	4r
.	.	4r	4r	4r	4r
=13	=13	=13	=13	=13	=13
.	.	4CC'/	4C'/	4c'/	4c'/
.	.	4CC'/	4C'/	4c'/	4c'/
.	.	4CC'/	4C'/	4c'/	4c'/
=14	=14	=14	=14	=14	=14
.	.	[2.CC/	2.C/	2.c/	2.c/
=15	=15	=15	=15	=15	=15
V7	Pedal D in the bass	2.CC/_	[2.G/	2.B/	2.f/
=16	=16	=16	=16	=16	=16
I	.	2.CC/]	4G/]	4c/	4e/
viiom7	Pedal D in the bass	.	4BB/	4f/	4a\
I	.	.	4C/	4e/	4g/
=17	=17	=17	=17	=17	=17
.	.	4CC'/	4C'/	2e/	2cc\
.	.	4CC'/	4C'/	.	.
.	.	4CC'/	4C'/	16g/LL	16b\LL
.	.	.	.	16f/	16a\
.	.	.	.	16e/	16g\
.	.	.	.	16f/JJ	16a\JJ
=18	=18	=18	=18	=18	=18
.	.	4CC/	4C/	4e/	4g/
.	.	4r	4r	4r	4r
.	.	4r	4r	4r	4r
=19	=19	=19	=19	=19	=19
ii	.	4DD'/	4D'/	4d'/	4d'/
.	.	4DD'/	4D'/	4d'/	4d'/
.	.	4DD'/	4D'/	4d'/	4d'/
=20	=20	=20	=20	=20	=20
.	.	2DD/	[2.D/	2d/	4d/
.	.	.	.	.	4f/
iim7d	.	4CC/	.	[4f/	4a\
=21	=21	=21	=21	=21	=21
V7b	.	2BBB/	4D/]	4f/]	[2.g/
.	.	.	4G'/	4d/	.
I	.	4CC/	4G'/	[4e/	.
=22	=22	=22	=22	=22	=22
iim7b	.	2.FF/	2.A/	4e/]	4g/]
.	.	.	.	4f/	4a\
.	.	.	.	4d/	4f/
=23	=23	=23	=23	=23	=23
Ic	.	2.GG/	2G/	2c/	2e/
V7	.	.	4F/	4B/	8f/L
.	.	.	.	.	8d/J
=24	=24	=24	=24	=24	=24
vi	.	4AA/	4E/	4c/	4c/
.	.	4r	4r	4r	4r
.	.	4r	4r	4r	4r
=25	=25	=25	=25	=25	=25
IV/IV	.	4BBB-'/	4BB-'/	4B-'/	4B-'/
.	.	4BBB-'/	4BB-'/	4B-'/	4B-'/
.	.	4BBB-'/	4BB-'/	4B-'/	4B-'/
=26	=26	=26	=26	=26	=26
V7b/IV	.	2EE/	2.C/	2G/	2B-/
IV	.	4FF/	.	4F/	4A/
=27	=27	=27	=27	=27	=27
ii	.	4DD'/	4D'/	4A'/	4f'/
.	.	4DD'/	4D'/	4A'/	4f'/
.	.	4DD'/	4D'/	4A'/	4f'/
=28	=28	=28	=28	=28	=28
Vb/ii	.	4CC#/	4C#/	2A/	4e/
ii	.	4DD/	4D/	.	4f/
viiom7	.	4BBB/	4BB/	4f/	4a\
=29	=29	=29	=29	=29	=29
I	.	4CC'/	4C'/	2e/	2g/
.	.	4EE'/	4E'/	.	.
V7	.	4GG'/	4G'/	4d/	4B/
=30	=30	=30	=30	=30	=30
I	.	4C\	4c\	4c/	4c/
.	.	4r	4r	4r	4r
.	.	4r	4r	4r	4r
=31	=31	=31	=31	=31	=31
vi	.	4AA'/	4e'\	4c'/ 4a'/	12a\L
.	.	.	.	.	12cc\
.	.	.	.	.	12ee\J
.	.	4AA'/	4e'\	4c'/ 4a'/	12aa\L
.	.	.	.	.	12ee\
.	.	.	.	.	12cc\J
.	.	4AA'/	4e'\	4c'/ 4a'/	12a/L
.	.	.	.	.	12e/
.	.	.	.	.	12c/J
=32	=32	=32	=32	=32	=32
.	.	4AA'/	4e'\	4c'/ 4a'/	4A/
.	.	4r	4r	4r	4r
.	.	4r	4r	4r	4r
=33	=33	=33	=33	=33	=33
.	.	4A'\	4e'\	4e'/	4cc'\
.	.	4A'\	4e'\	4e'/	4cc'\
.	.	4A'\	4e'\	4e'/	4cc'\
=34	=34	=34	=34	=34	=34
V7c/V	.	2.A\	[2.d\	2.f#/	2cc\
.	.	.	.	.	8dd\L
.	.	.	.	.	8a\J
=35	=35	=35	=35	=35	=35
V	.	4G\	4d\]	4g/	4b\
.	.	4G'\	4d'\	4g'/	4b'\
.	.	4G'\	4d'\	4g'/	4b'\
=36	=36	=36	=36	=36	=36
.	.	4G'\	4d'\	4g'/	4b'\
.	.	4r	4r	4r	4r
.	.	4r	4r	4r	4r
=37	=37	=37	=37	=37	=37
*g:	*g:	*g:	*g:	*g:	*g:
i[v]	.	4GG'/	4B-'\ 4d'\	4d'/ 4b-'/	12g\L
.	.	.	.	.	12b-\
.	.	.	.	.	12dd\J
.	.	4GG'/	4B-'\ 4d'\	4d'/ 4b-'/	12gg\L
.	.	.	.	.	12dd\
.	.	.	.	.	12b-\J
.	.	4GG'/	4B-'\ 4d'\	4d'/ 4b-'/	12g/L
.	.	.	.	.	12d/
.	.	.	.	.	12B-/J
=38	=38	=38	=38	=38	=38
.	.	4GG'/	4B-'\ 4d'\	4d'/ 4b-'/	4G/
.	.	4r	4r	4r	4r
.	.	4r	4r	4r	4r
=39	=39	=39	=39	=39	=39
Gn	.	4E-'\	4B-'\	4c#'/	4g'/
.	.	4E-'\	4B-'\	4c#'/	4g'/
.	.	4E-'\	4B-'\	4c#'/	4g'/
=40	=40	=40	=40	=40	=40
.	.	2.E-\	4B-\	2.c#/	4g/
.	.	.	4A/	.	4a\
.	.	.	[4G/	.	4b-\
=41	=41	=41	=41	=41	=41
V	.	[2.D\	4G/]	2d/	4b-\
.	.	.	4F#/	.	4a\
viio/V	Pedal E in the bass	.	4E/	4g/	4cc#\
=42	=42	=42	=42	=42	=42
V	.	2D\]	4F#/	4a\	[2.dd\
.	.	.	4A/	4f#/	.
V7d	.	4C\	4A/	4f#/	.
=43	=43	=43	=43	=43	=43
*G:	*G:	*G:	*G:	*G:	*G:
Ib	.	4BB/	4G/	4g/	12dd\L]
.	.	.	.	.	12cc#\
.	.	.	.	.	12dd\J
.	.	4r	4c\	2e/	12ee\L
.	.	.	.	.	12dd\
.	.	.	.	.	12cc#\J
.	.	4r	4c#\	.	12b\L
.	.	.	.	.	12a\
.	.	.	.	.	12g\J
=44	=44	=44	=44	=44	=44
V	.	12DD/L	4d\	4d/	4f#/
.	.	12FF#/	.	.	.
.	.	12AA/J	.	.	.
.	.	12D\L	4r	4r	4r
.	.	12E\	.	.	.
.	.	12D\J	.	.	.
.	.	12C/L	4r	4r	[4dd\
.	.	12BB/	.	.	.
.	.	12AA/J	.	.	.
=45	=45	=45	=45	=45	=45
I	.	4BB/	4B\	4g/	12dd\L]
.	.	.	.	.	12cc#\
.	.	.	.	.	12dd\J
IV	.	4r	4c\	4e/	12ee\L
.	.	.	.	.	12dd\
.	.	.	.	.	12cc#\J
viio/V	.	4r	4c#\	4e/	12b\L
.	.	.	.	.	12a\
.	.	.	.	.	12g\J
=46	=46	=46	=46	=46	=46
V	.	12DD/L	4d\	4d/	4f#/
.	.	12FF#/	.	.	.
.	.	12AA/J	.	.	.
.	.	12D\L	4r	4r	4r
.	.	12E\	.	.	.
.	.	12D\J	.	.	.
.	.	12C/L	4r	4r	4r
.	.	12BB/	.	.	.
.	.	12AA/J	.	.	.
=47	=47	=47	=47	=47	=47
I	.	4GG/	4B\	4d/	12g\L
.	.	.	.	.	12b\
.	.	.	.	.	12dd\J
.	.	4r	4r	4r	12gg\L
.	.	.	.	.	12ff#\
.	.	.	.	.	12ee\J
.	.	4r	4r	4r	12dd\L
.	.	.	.	.	12cc\
.	.	.	.	.	12b\J
=48	=48	=48	=48	=48	=48
ii	.	4c\	4c\	4e/	12a\L
.	.	.	.	.	12ee\
.	.	.	.	.	12dd\J
.	.	4r	4r	4r	12cc\L
.	.	.	.	.	12b\
.	.	.	.	.	12a\J
.	.	4r	4r	4r	12g/L
.	.	.	.	.	12f#/
.	.	.	.	.	12e/J
=49	=49	=49	=49	=49	=49
V7d	.	2c\	[2.d\	4A/	12d/L
.	.	.	.	.	12f#/
.	.	.	.	.	12g/J
.	.	.	.	4r	12a/L
.	.	.	.	.	12g/
.	.	.	.	.	12f#/J
Ib	.	4B\	.	4r	12g\L
.	.	.	.	.	12a\
.	.	.	.	.	12b\J
=50	=50	=50	=50	=50	=50
V7	.	12D\L	2.d\_	2a\	2cc\
.	.	12F#\	.	.	.
.	.	12G\J	.	.	.
.	.	12A\L	.	.	.
.	.	12G\	.	.	.
.	.	12F#\J	.	.	.
I	.	12G\L	.	4g/	4b\
.	.	12A\	.	.	.
.	.	12B\J	.	.	.
=51	=51	=51	=51	=51	=51
V7d	.	2c\	2.d\_	2.r	12d/L
.	.	.	.	.	12f#/
.	.	.	.	.	12g/J
.	.	.	.	.	12a/L
.	.	.	.	.	12g/
.	.	.	.	.	12f#/J
Ib	.	4B\	.	.	12g\L
.	.	.	.	.	12a\
.	.	.	.	.	12b\J
=52	=52	=52	=52	=52	=52
V7	.	12D\L	2.d\]	2a\	2cc\
.	.	12F#\	.	.	.
.	.	12G\J	.	.	.
.	.	12A\L	.	.	.
.	.	12G\	.	.	.
.	.	12F#\J	.	.	.
I	.	12G\L	.	4b\	4b\
.	.	12A\	.	.	.
.	.	12B\J	.	.	.
=53	=53	=53	=53	=53	=53
iim7b	.	[2.c\	12e\L	4b\	2.ee\
.	.	.	12f#\	.	.
.	.	.	12g\J	.	.
.	.	.	12b\L	4a\	.
.	.	.	12cc\	.	.
.	.	.	12b\J	.	.
.	.	.	12a\L	4a\	.
.	.	.	12b\	.	.
.	.	.	12g\J	.	.
=54	=54	=54	=54	=54	=54
V7d	.	2.c\]	4B\	2.a\	12dd\L
.	.	.	.	.	12ff#\
.	.	.	.	.	12ee\J
.	.	.	4f#\	.	12dd\L
.	.	.	.	.	12ff#\
.	.	.	.	.	12gg\J
.	.	.	[4d\	.	12aa\L
.	.	.	.	.	12bb\
.	.	.	.	.	12ccc\J
=55	=55	=55	=55	=55	=55
Ib	.	2.B\	4d\]	4g/	[2.ddd\
.	.	.	4g\	4b\	.
.	.	.	4g\	4dd\	.
=56	=56	=56	=56	=56	=56
IV	.	[2.c\	2g\	[2.ee\	4ddd\]
.	.	.	.	.	4ccc\
.	.	.	4g#\	.	4bb\
=57	=57	=57	=57	=57	=57
iib	.	4c\]	[2.a\	4ee\]	[2.ccc\
.	.	4B\	.	4dd\	.
.	.	4A\	.	4cc\	.
=58	=58	=58	=58	=58	=58
Ib	.	[2.B\	4a\]	[2.dd\	4ccc\]
.	.	.	4g\	.	4bb\
.	.	.	4f#\	.	4aa#\
=59	=59	=59	=59	=59	=59
.	.	4B\]	[2.g\	4dd\]	[2.bb\
.	.	4A\	.	4cc\	.
.	.	4G\	.	4b\	.
=60	=60	=60	=60	=60	=60
.	.	2.A\	4g\]	[2.cc\	12bb\L]
.	.	.	.	.	12aa#\
.	.	.	.	.	12bb\J
.	.	.	4f#\	.	12ccc\L
.	.	.	.	.	12bb\
.	.	.	.	.	12aa\J
.	.	.	4f#\	.	12gg\L
.	.	.	.	.	12ff#\
.	.	.	.	.	12ee\J
=61	=61	=61	=61	=61	=61
V7c	.	[2.A\	[2.f#\	2.cc\_	4dd\
.	.	.	.	.	4dd'\
.	.	.	.	.	4dd'\
=62	=62	=62	=62	=62	=62
.	.	2.A\]	2.f#\]	2.cc\]	[2.dd\
=63	=63	=63	=63	=63	=63
Ib	.	2.B\	4g\	4b\	4dd\]
.	.	.	4g'\	4g'/	4gg\
.	.	.	4g'\	4g'/	4ff#\
=64	=64	=64	=64	=64	=64
?	.	2c\	2.g\	2.g/	4ff#\
.	.	.	.	.	4ee\
Ib	.	4B\	.	.	[4dd\
=65	=65	=65	=65	=65	=65
V7c	.	2A\	2c\	2f#/	4dd\]
.	.	.	.	.	12ee\L
.	.	.	.	.	12cc\
.	.	.	.	.	12a\J
I	.	4G\	4B\	4g/	[4b\
=66	=66	=66	=66	=66	=66
iib	.	2C\	2c\	2e/	4b\]
.	.	.	.	.	4a\
.	.	4D\	4A/	4c/	12cc\L
.	.	.	.	.	12a\
V7	.	.	.	.	12f#\J
=67	=67	=67	=67	=67	=67
*	*	*	*	*	*
I	.	4GG/	4B\	4B/	4g/
.	.	4r	4r	4r	4r
.	.	4r	4r	4r	4r
=68	=68	=68	=68	=68	=68
vii/ii	.	4GG#'/	4G#'/	4G#'/	4G#'/
.	.	4GG#'/	4G#'/	4G#'/	4G#'/
.	.	4GG#'/	4G#'/	4G#'/	4G#'/
=69	=69	=69	=69	=69	=69
.	.	4GG#/	4G#/	4G#/	4G#/
ii	.	4AA/	4A/	4A/	4A/
IV	.	4CC/	4C/	[4c/	[4e/
=70	=70	=70	=70	=70	=70
iiib	.	2.DD/	2D/	4c/]	4e/]
.	.	.	.	4B/	4d/
V7	.	.	4C/	4A/	4F#/
=71	=71	=71	=71	=71	=71
I	.	4GG'/	4BB'/	4G'/	4G'/
.	.	4GG'/	4G'/	4G'/	4G'/
.	.	4GG'/	4G'/	4G'/	4G'/
=72	=72	=72	=72	=72	=72
.	.	4.GG/	4.G/	4.G/	4.G/
.	.	16AA/LL	16A/LL	16A/LL	16A/LL
.	.	16BB/JJ	16B/JJ	16B/JJ	16B/JJ
.	.	16C\LL	16c\LL	16c/LL	16c/LL
.	.	16D\	16d\	16d/	16d/
.	.	16E\	16e\	16e/	16e/
.	.	16F#\JJ	16f#\JJ	16f#/JJ	16f#/JJ
=73	=73	=73	=73	=73	=73
*	*	*	*	*	*
.	.	4G'\	4g'\	4g'/	4g'/
Ib	.	4GG'/	4g'\	4d'/	4.gg\
.	.	4r	4r	4r	.
.	.	.	.	.	8ff#\
=74	=74	=74	=74	=74	=74
.	.	4r	4r	4r	4ff#'\
viioD7b/ii	.	2B\	2g#\	2dd\	2ff\
=75	=75	=75	=75	=75	=75
iib	.	4c\	4a\	4cc\	12ee\L
.	.	.	.	.	12dd\
.	.	.	.	.	12cc\J
.	.	4r	4r	4r	12b\L
.	.	.	.	.	12a\
.	.	.	.	.	12aa\J
.	.	4r	4r	4r	12aa\L
.	.	.	.	.	12a\
.	.	.	.	.	12gg\J
=76	=76	=76	=76	=76	=76
V7d	.	4c\	4d\	4a\	12gg\L
.	.	.	.	.	12ff#\
.	.	.	.	.	12gg\J
.	.	4r	4r	4r	12aa\L
.	.	.	.	.	12gg\
.	.	.	.	.	12ff#\J
.	.	4r	4r	4r	12ee\L
.	.	.	.	.	12dd\
.	.	.	.	.	12aa\J
=77	=77	=77	=77	=77	=77
.	.	4c'\	4d'\	4a'\	12ff#\L
.	.	.	.	.	12dd\
.	.	.	.	.	12aa\J
.	.	4c'\	4d'\	4a'\	12ff#\L
.	.	.	.	.	12dd\
.	.	.	.	.	12aa\J
.	.	4c'\	4d'\	8.a/L	12ff#\L
.	.	.	.	.	12dd\
.	.	.	.	.	12aa\J
.	.	.	.	16f#/Jk	.
=78	=78	=78	=78	=78	=78
Ib	.	4B\	4d\	4g/	12gg\L
.	.	.	.	.	12ff#\
.	.	.	.	.	12ee\J
.	.	4r	4r	4r	12dd\L
.	.	.	.	.	12cc\
.	.	.	.	.	12b\J
.	.	4r	4r	4r	12a\L
.	.	.	.	.	12g\
.	.	.	.	.	12aa\J
=79	=79	=79	=79	=79	=79
V7b	.	4c'\	4d'\	4a'\	12ff#\L
.	.	.	.	.	12dd\
.	.	.	.	.	12aa\J
.	.	4c'\	4d'\	4a'\	12ff#\L
.	.	.	.	.	12dd\
.	.	.	.	.	12aa\J
.	.	4c'\	4d'\	8.a/L	12ff#\L
.	.	.	.	.	12dd\
.	.	.	.	.	12aa\J
.	.	.	.	16f#/Jk	.
=80	=80	=80	=80	=80	=80
Ib	.	4B\	4d'\	4g/	12gg\L
.	.	.	.	.	12ff#\
.	.	.	.	.	12ee\J
.	.	4r	4r	4r	12dd\L
.	.	.	.	.	12cc\
.	.	.	.	.	12b\J
.	.	4r	4r	4r	12a\L
.	.	.	.	.	12g\
.	.	.	.	.	12aa\J
=81	=81	=81	=81	=81	=81
V7d	.	4c'\	4d'\	4a'\	12ff#\L
.	.	.	.	.	12dd\
.	.	.	.	.	12aa\J
.	.	4c'\	4d'\	4a'\	12ff#\L
.	.	.	.	.	12dd\
.	.	.	.	.	12aa\J
.	.	4c'\	4d'\	8.a/L	12ff#\L
.	.	.	.	.	12dd\
.	.	.	.	.	12aa\J
.	.	.	.	16f#/Jk	.
=82	=82	=82	=82	=82	=82
Ib	.	12B\L	12d\L	12g/L	12gg\L
.	.	12G\	12G\	12g/	12g\
.	.	12A\J	12A\J	12a/J	12a\J
.	.	12B\L	12B/L	12b\L	12b\L
.	.	12G\	12G/	12g\	12g\
.	.	12B\J	12B/J	12b\J	12b\J
.	.	12d\L	12d\L	12dd\L	12dd\L
.	.	12B\	12B\	12b\	12b\
.	.	12d\J	12d\J	12dd\J	12dd\J
=83	=83	=83	=83	=83	=83
*	*	*	*	*	*
IV/IV	.	4f'\	4f'\	4ff'\	4ff'\
.	.	4r	4r	4r	4r
.	.	4r	4r	4r	4r
=84	=84	=84	=84	=84	=84
IV	.	4C\	4C/	4r	4r
.	.	4r	4r	4c/	4e/
.	.	4r	4r	4cc\	4ee\
=85	=85	=85	=85	=85	=85
viio/ii	.	2.r	2.r	2g#/	2b\
ii	.	.	.	4a\	4cc\
=86	=86	=86	=86	=86	=86
Ic	.	2.D\	2B\	2d/	2g/
V7	.	.	4A/	4c/	8a/L
.	.	.	.	.	8f#/J
=87	=87	=87	=87	=87	=87
I	.	4GG/	4G/	4B/	4g/
.	.	4r	4r	4g/	4b\
.	.	4r	4r	4a\	4cc\
=88	=88	=88	=88	=88	=88
.	Still in A major	2.r	2.r	4b\	4dd\
.	.	.	.	4ee\	4gg\
.	.	.	.	4dd\	4ff\
=89	=89	=89	=89	=89	=89
IV	.	4r	4r	4cc\	4ee\
.	.	4C\	4E/	4r	4r
.	.	4c\	4e\	4r	4r
=90	=90	=90	=90	=90	=90
viio/ii	.	2G#\	2B\	4r	4r
.	.	.	.	4f/	4dd\
ii	.	4A\	4c\	4e/	4cc\
=91	=91	=91	=91	=91	=91
V7b	.	2F#\	2A/	4r	4r
.	.	.	.	4e-/	4cc\
I	.	4G\	4B\	8d/L	4b\
.	.	.	.	8b/J	.
=92	=92	=92	=92	=92	=92
iib	Appoggiaturas in the first beat	[2.C\	4G#/	4b\	[2.ee\
.	.	.	4A/	4a\	.
.	.	.	4A/	4g/	.
=93	=93	=93	=93	=93	=93
V7d	.	2.C\_	[2.A/	[2.f#/	8ee\L]
.	.	.	.	.	8dd\J
.	.	.	.	.	8cc#\L
.	.	.	.	.	8dd\J
.	.	.	.	.	8cc#\L
.	.	.	.	.	8dd\J
=94	=94	=94	=94	=94	=94
.	.	2.C\]	2.A/]	2.f#/]	[2.dd\
=95	=95	=95	=95	=95	=95
Ib	.	[2.BB/	[2.G/	[2.g/	4dd\]
.	.	.	.	.	4gg\
.	.	.	.	.	4ff#\
=96	=96	=96	=96	=96	=96
IV	.	4BB/]	2.G/_	2.g/_	4ff\
.	.	2C\	.	.	4ee\
.	.	.	.	.	4ee-\
=97	=97	=97	=97	=97	=97
.	.	4D\	2.G/]	2.g/]	4dd\
viiob/V	.	4E\	.	.	4cc#\
.	.	4E-\	.	.	4cc\
=98	=98	=98	=98	=98	=98
V7	.	2.D\	2G/	2d/	2b\
.	.	.	4A/	4c/	12cc\L
.	.	.	.	.	12a\
.	.	.	.	.	12f#\J
=99	=99	=99	=99	=99	=99
I	.	4GG/	4G/	4B/	4g/
.	.	4r	4r	12r	12r
.	.	.	.	12cc\L	12ee\L
.	.	.	.	12dd\J	12ff#\J
.	.	4r	4r	12ee\L	12gg\L
.	.	.	.	12dd\	12ff#\
.	.	.	.	12cc\J	12ee\J
=100	=100	=100	=100	=100	=100
.	.	4r	4r	4b'\	4dd'\
.	.	12r	12r	4r	4r
.	.	12A\L	12c\L	.	.
.	.	12B\J	12d\J	.	.
.	.	12c\L	12e\L	4r	4r
.	.	12B\	12d\	.	.
.	.	12A\J	12c\J	.	.
=101	=101	=101	=101	=101	=101
.	.	4G'\	4B'\	4r	4r
.	.	12r	12r	12r	12r
.	.	12AA/L	12c\L	12cc\L	12ee\L
.	.	12BB/J	12d\J	12b\J	12dd\J
.	.	12C/L	12e\L	12a\L	12cc\L
.	.	12BB/	12d\	12b\	12dd\
.	.	12AA/J	12c\J	12cc\J	12ee\J
=102	=102	=102	=102	=102	=102
Ic	.	4D'\	4d'\	4g'/	4b'\
.	.	4r	4r	4r	4r
V7	.	4D\	4c\	4f#/	16b\LL
.	.	.	.	.	16a\
.	.	.	.	.	16g\
.	.	.	.	.	16a\JJ
=103	=103	=103	=103	=103	=103
I	.	4GG/	4B'\	4g'/	4g'/
.	.	12r	12r	4r	4r
.	.	12B\L	12d\L	.	.
.	.	12A\J	12c\J	.	.
.	.	12G\L	12B\L	4r	4r
.	.	12A\	12c\	.	.
.	.	12B\J	12d\J	.	.
=104	=104	=104	=104	=104	=104
.	.	4c'\	4e'\	4r	4r
.	.	4r	4r	12r	12r
.	.	.	.	12f#/L	12a/L
.	.	.	.	12e/J	12g/J
.	.	4r	4r	12d/L	12f#/L
.	.	.	.	12e/	12g/
.	.	.	.	12f#/J	12a/J
=105	=105	=105	=105	=105	=105
.	.	4r	4r	4g/	4b\
.	.	12r	12r	12r	12r
.	.	12c\L	12e\L	12a\L	12cc\L
.	.	12B\J	12d\J	12b\J	12dd\J
.	.	12A\L	12c\L	12cc\L	12ee\L
.	.	12B\	12d\	12b\	12dd\
.	.	12c\J	12e\J	12a\J	12cc\J
=106	=106	=106	=106	=106	=106
Ic	.	4d'\	4d'\	4g'/	4b'\
.	.	4r	4r	4r	4r
V7	.	4D\	4c\	4f#/	16b\LL
.	.	.	.	.	16a\
.	.	.	.	.	16g\
.	.	.	.	.	16a\JJ
=107	=107	=107	=107	=107	=107
I	.	4G\	4B'\	4g'/	4g'/
.	.	4r	4r	4r	4g'/
.	.	16d\LL	16f#\LL	4r	4g'/
.	.	16c\	16e\	.	.
.	.	16B\	16d\	.	.
.	.	16c\JJ	16e\JJ	.	.
=108	=108	=108	=108	=108	=108
.	.	4B\	4d\	4r	[2.g/
.	.	4r	4r	4G/	.
.	.	16B\LL	16d\LL	4r	.
.	.	16A\	16c\	.	.
.	.	16G\	16B\	.	.
.	.	16A\JJ	16c\JJ	.	.
=109	=109	=109	=109	=109	=109
.	.	4G\	4B\	4r	2.g/_
.	.	4r	4r	4G/	.
.	.	4r	16f\LL	16a/LL	.
.	.	.	16e\	16g/	.
.	.	.	16d\	16f/	.
.	.	.	16e\JJ	16g/JJ	.
=110	=110	=110	=110	=110	=110
.	.	4r	4d\	4f/	2.g/_
.	.	4GG/	4B\	4d/	.
.	.	4r	16d\LL	16f/LL	.
.	.	.	16c\	16e/	.
.	.	.	16B\	16d/	.
.	.	.	16c\JJ	16e/JJ	.
=111	=111	=111	=111	=111	=111
.	.	4r	4B\	4d/	4g/]
.	.	4GG'/	4G'/	4G'/	4G'/
.	.	4GG'/	4G'/	4G'/	4G'/
=112	=112	=112	=112	=112	=112
.	.	4GG/	4G/	4G/	4G/
viioD7/IV	.	4AA-/	4A-/	4A-/	4A-/
.	End of exposition section	4BBB/	4B\	4B/	4B/
=113:|!|:	=113:|!|:	=113:|!|:	=113:|!|:	=113:|!|:	=113:|!|:
.	Start of the development section	2GG/	2G/	2G/	2G/
viio/ii	.	4GG#/	4G#/	4G#/	4G#/
=114	=114	=114	=114	=114	=114
*e	*e	*	*	*	*
V[ii]	.	4AA'/	4A'/	4A'/	4A'/
.	.	4AA'/	4A'/	4A'/	4A'/
.	.	4AA'/	4A'/	4A'/	4A'/
=115	=115	=115	=115	=115	=115
.	.	[2.AA/	2.A/	2.A/	2.A/
=116	=116	=116	=116	=116	=116
V7	.	2.AA/_	2.c#\	2.e/	2.g/
=117	=117	=117	=117	=117	=117
ic	.	2.AA/_	2.d\	4d/	4f/
.	.	.	.	4f/	4a\
.	.	.	.	4f'/	4dd\
=118	=118	=118	=118	=118	=118
V7	.	2.AA/_	4g\	4e/	4cc#\
.	.	.	4e\	4cc#\	4ee\
.	.	.	4c#\	4ee\	4gg\
=119	=119	=119	=119	=119	=119
ic	.	2.AA/_	4d\	4dd\	4ff\
.	.	.	4f\	4f/	4dd\
.	.	.	4f\	4d/	4g#/
=120	=120	=120	=120	=120	=120
V7	.	4AA/]	4e\	4c#/	4a\
.	.	4AA'/	4A'/	4A'/	4A'/
.	.	4AA'/	4A'/	4A'/	4A'/
=121	=121	=121	=121	=121	=121
.	.	2AA/	2A/	2A/	2A/
viio/V/ii	.	4AA#/	4A#/	4A#/	4A#/
=122	=122	=122	=122	=122	=122
*e:	*e:	*e:	*e:	*e:	*e:
V[V/ii]	.	4BB'/	4B'\	4B'/	4B'/
.	.	4BB'/	4B'\	4B'/	4B'/
.	.	4BB'/	4B'\	4B'/	4B'/
=123	=123	=123	=123	=123	=123
.	.	2.BB/	2.B\	2.B/	2.B/
=124	=124	=124	=124	=124	=124
V7	.	[2.BB/	2.d#\	2.f#/	2.a\
=125	=125	=125	=125	=125	=125
ic	.	2.BB/_	2.e\	4e/	4g/
.	.	.	.	4g/	4b\
.	.	.	.	4g'/	4ee\
=126	=126	=126	=126	=126	=126
V7	.	2.BB/_	4a\	4f#/	4dd#\
.	.	.	4f#\	4dd#\	4ff#\
.	.	.	4d#\	4ff#\	4aa\
=127	=127	=127	=127	=127	=127
ic	.	2.BB/_	4e\	4ee\	4gg\
.	.	.	4g'\	4g/	4ee\
.	.	.	4g'\	4e/	4a#\
=128	=128	=128	=128	=128	=128
V7	.	2.BB/_	4f#\	4d#/	4b\
.	.	.	4d#'\	4f#/	4dd#\
.	.	.	4d#'\	4a\	4ff#\
=129	=129	=129	=129	=129	=129
ic	.	2.BB/]	4e\	4g/	4ee\
.	.	.	4g'\	4e'/	4a#'\
.	.	.	4g'\	4e'/	4a#'\
=130	=130	=130	=130	=130	=130
V	.	4BB'/	4f#'\	4d#'/	4b'\
.	.	4BB'/	4f#'\	4d#'/	4b'\
.	.	4BB'/	4f#'\	4d#'/	4b'\
=131	=131	=131	=131	=131	=131
.	.	4BB/	4f#\	4d#/	[2b\
.	.	4r	4r	4r	.
.	.	4r	4r	4r	8.b\L]
.	.	.	.	.	16cc\Jk
=132	=132	=132	=132	=132	=132
V/VI	.	2.r	2.r	2.r	4dd\
.	.	.	.	.	4b\
.	.	.	.	.	4g/
=133	=133	=133	=133	=133	=133
viio/VI	.	2.r	2.r	2.r	4f/
.	.	.	.	.	4d/
.	.	.	.	.	4B/
=134	=134	=134	=134	=134	=134
*C:	*C:	*C:	*C:	*C:	*C:
I[VI]	Presenting a fake return to the principal theme	4CC'/	4C'/	4c'/	4c'/
.	.	4CC'/	4C'/	4c'/	4c'/
.	.	4CC'/	4C'/	4c'/	4c'/
=135	=135	=135	=135	=135	=135
*	*	*	*	*	*
.	.	[2.CC/	2.C/	2.c/	2.c/
=136	=136	=136	=136	=136	=136
V7	Pedal D in the bass	2.CC/_	[2.G/	2.B/	2.f/
=137	=137	=137	=137	=137	=137
.	.	2.CC/]	4G/]	4c/	4e/
viiom7	Pedal D in the bass	.	4BB/	4f/	4a\
I	.	.	4C/	4e/	4g/
=138	=138	=138	=138	=138	=138
I	.	4CC'/	4C'/	2e/	2cc\
.	.	4CC'/	4C'/	.	.
viio	.	4CC'/	4C'/	4f/	16b\LL
.	Pedal D in bass and viola	.	.	.	16a\
.	.	.	.	.	16g\
.	.	.	.	.	16a\JJ
=139	=139	=139	=139	=139	=139
*	*	*	*	*	*
I	.	4CC/	4C/	4e/	4g/
.	.	4r	4r	4e/	4g/
IVc	.	4r	4r	4f/	4a\
=140	=140	=140	=140	=140	=140
viioD7/II	.	2.r	4c#'\	2g/	2b-\
.	.	.	4c#'\	.	.
iiic/II	.	.	4c#'\	16f#/LL	16a/LL
.	.	.	.	16e/	16g/
.	.	.	.	16d/	16f#/
.	.	.	.	16e/JJ	16g/JJ
=141	=141	=141	=141	=141	=141
*D:	*D:	*D:	*D:	*D:	*D:
I[II]	.	2.r	4d\	4d/	4f#/
.	.	.	4r	4f#/	4a\
viiob	.	.	4r	4e/	4cc#\
=142	=142	=142	=142	=142	=142
I	.	4DD'/	2.r	2f#/	2dd\
.	.	4DD'/	.	.	.
IV	Pedal in the bass	4DD'/	.	4g/	16cc\LL
.	.	.	.	.	16b\
.	.	.	.	.	16a\
.	.	.	.	.	16b\JJ
=143	=143	=143	=143	=143	=143
I	.	4DD/	2.r	4f#/	4a\
.	.	4r	.	4f#/	4a\
IVc	.	4r	.	4g/	4b\
=144	=144	=144	=144	=144	=144
viioD7/II	.	2.r	4d#'\	2a\	2cc\
.	.	.	4d#'\	.	.
iiic/II	A sharp minor!	.	4d#'\	16g#/LL	16b\LL
.	.	.	.	16f#/	16a\
.	.	.	.	16e/	16g#\
.	.	.	.	16f#/JJ	16a\JJ
=145	=145	=145	=145	=145	=145
*E:	*E:	*E:	*E:	*E:	*E:
I[II]	.	2.r	4e\	4e/	4g#/
.	.	.	4r	4g#/	4b\
viiob	.	.	4r	4f#/	4dd#\
=146	=146	=146	=146	=146	=146
I	.	4EE'/	2.r	2g#/	2ee\
.	.	4EE'/	.	.	.
ivc	This time the fourth degree is minor	4EE'/	.	4a\	16dd\LL
.	.	.	.	.	16cc\
.	.	.	.	.	16b\
.	.	.	.	.	16cc\JJ
=147	=147	=147	=147	=147	=147
I	.	4EE/	2.r	4g#/	4b\
.	.	4r	.	4g#/	4b\
iv	.	4r	.	4a\	4cc\
=148	=148	=148	=148	=148	=148
V7/iv	Going from F sharp major to B minor	2.r	4e'\	2b\	2dd\
.	.	.	4e'\	.	.
.	.	.	4e'\	4g#/	16cc\LL
.	.	.	.	.	16b\
.	.	.	.	.	16a\
.	.	.	.	.	16b\JJ
=149	=149	=149	=149	=149	=149
*a:	*a:	*a:	*a:	*a:	*a:
i[iv]	.	4A'\	4e'\	4c'/ 4a'/	12aa\L
.	.	.	.	.	12ee\
.	.	.	.	.	12cc\J
.	.	4A'\	4e'\	4c'/ 4a'/	12b\L
.	.	.	.	.	12a\
.	.	.	.	.	12g\J
.	.	4A'\	4e'\	4c'/ 4a'/	12f/L
.	.	.	.	.	12e/
.	.	.	.	.	12d/J
=150	=150	=150	=150	=150	=150
.	.	4A\	4e\	4c/ 4a/	12c/L
.	.	.	.	.	12e/
.	.	.	.	.	12a/J
.	.	4r	4r	4r	12e/L
.	.	.	.	.	12a/
.	.	.	.	.	12cc/J
.	.	4r	4r	4r	12a\L
.	.	.	.	.	12cc\
.	.	.	.	.	12ee\J
=151	=151	=151	=151	=151	=151
V7d/iv	.	4G'\	4c#'\	4e'/	12aa\L
.	.	.	.	.	12ee\
.	.	.	.	.	12cc#\J
.	.	4G'\	4c#'\	4e'/	12b\L
.	.	.	.	.	12a\
.	.	.	.	.	12g\J
.	.	4G'\	4c#'\	4e'/	12f#/L
.	.	.	.	.	12e/
.	.	.	.	.	12d/J
=152	=152	=152	=152	=152	=152
.	.	4G\	4c#\	4e/	12c#/L
.	.	.	.	.	12e/
.	.	.	.	.	12a/J
.	.	4r	4r	4r	12e/L
.	.	.	.	.	12a/
.	.	.	.	.	12cc#/J
.	.	4r	4r	4r	12a\L
.	.	.	.	.	12cc#\
.	.	.	.	.	12ee\J
=153	=153	=153	=153	=153	=153
ivb	.	4F'\	4A/	4d'/	12aa\L
.	.	.	.	.	12ff\
.	.	.	.	.	12dd\J
.	.	4F'\	4A/	4d'/	12cc\L
.	.	.	.	.	12b-\
.	.	.	.	.	12a\J
.	.	4F'\	4A/	4d'/	12g/L
.	.	.	.	.	12f/
.	.	.	.	.	12e/J
=154	=154	=154	=154	=154	=154
.	.	4F\	4A'/	4d/	12d/L
.	.	.	.	.	12f/
.	.	.	.	.	12a/J
.	.	4r	4r	4r	12f\L
.	.	.	.	.	12a\
.	.	.	.	.	12dd\J
.	.	4r	4r	4r	12a\L
.	.	.	.	.	12dd\
.	.	.	.	.	12ff\J
=155	=155	=155	=155	=155	=155
V7b/iv	.	4C#'\	4A'/	4e'/	12aa\L
.	.	.	.	.	12gg\
.	.	.	.	.	12ee\J
.	.	4C#'\	4A'/	4e'/	12a\L
.	.	.	.	.	12cc#\
.	.	.	.	.	12ee\J
.	.	4C#'\	4A'/	4e'/	12aa\L
.	.	.	.	.	12gg\
.	.	.	.	.	12ee\J
=156	=156	=156	=156	=156	=156
.	.	4C#\	4A/	4e/	12aa\L
.	.	.	.	.	12gg\
.	.	.	.	.	12ee\J
.	.	4r	4r	4r	12a\L
.	.	.	.	.	12cc#\
.	.	.	.	.	12ee\J
.	.	4r	4r	4r	12aa\L
.	.	.	.	.	12gg\
.	.	.	.	.	12ee\J
=157	=157	=157	=157	=157	=157
iv	.	4d'\	4f'\	4a'\	12ff\L
.	.	.	.	.	12dd\
.	.	.	.	.	12aa\J
.	.	4d'\	4f'\	4a'\	12ff\L
.	.	.	.	.	12dd\
.	.	.	.	.	12aa\J
.	.	4d'\	4f'\	4a'\	12ff\L
.	.	.	.	.	12dd\
.	.	.	.	.	12aa\J
=158	=158	=158	=158	=158	=158
V7d/VII	.	4c'\	4a'\	4f#'/	12ff#\L
.	.	.	.	.	12dd\
.	.	.	.	.	12aa\J
.	.	4c'\	4a'\	4f#'/	12ff#\L
.	.	.	.	.	12dd\
.	.	.	.	.	12aa\J
.	.	4c'\	4a'\	4f#'/	12ff#\L
.	.	.	.	.	12dd\
.	.	.	.	.	12aa\J
=159	=159	=159	=159	=159	=159
V7/V	.	4B'\	4a'\	4d#'/	12ff#\L
.	.	.	.	.	12dd\
.	.	.	.	.	12aa\J
.	.	4B'\	4a'\	4d#'/	12ff#\L
.	.	.	.	.	12dd\
.	.	.	.	.	12aa\J
.	.	4B'\	4a'\	4d#'/	12ff#\L
.	.	.	.	.	12dd\
.	.	.	.	.	12aa\J
=160	=160	=160	=160	=160	=160
.	.	4B\	4a\	4d#/	4ff#\
.	.	4r	4r	4r	4r
.	.	4r	4r	4r	4r
=161	=161	=161	=161	=161	=161
V	.	4EE'/	4E'/	4e'/	4e'/
.	.	4EE'/	4E'/	4e'/	4e'/
.	.	4EE'/	4E'/	4e'/	4e'/
=162	=162	=162	=162	=162	=162
.	.	[2.EE/	2.E/	2.e/	2.e/
=163	=163	=163	=163	=163	=163
V7/v	Pedal F sharp in the bass	2.EE/_	2.D#/	2.f#/	2.a\
=164	=164	=164	=164	=164	=164
v	.	2.EE/]	4E/	4e/	4g/
ic	.	.	4E'/	4a\	4cc\
v	.	.	4E'/	4g/	4b\
=165	=165	=165	=165	=165	=165
*	*	*	*	*	*
.	.	4EE'/	4E'/	2g/	2ee\
.	.	4EE'/	4E'/	.	.
ic	.	4EE'/	4E'/	16b\LL	16dd\LL
.	.	.	.	16a\	16cc\
.	.	.	.	16g\	16b\
.	.	.	.	16a\JJ	16cc\JJ
=166	=166	=166	=166	=166	=166
v	.	4EE/	4E/	4g/	4b\
.	.	4r	4r	4r	4r
.	.	4r	4r	4r	4r
=167	=167	=167	=167	=167	=167
V7	.	4E'\	4G#'/	12e/L	[2.ee\
.	.	.	.	12g#/	.
.	.	.	.	12b/J	.
.	.	4E'\	4G#'/	12ee\L	.
.	.	.	.	12b\	.
.	.	.	.	12g#\J	.
.	.	4E'\	4G#'/	12e/L	.
.	.	.	.	12g#/	.
.	.	.	.	12b/J	.
=168	=168	=168	=168	=168	=168
V7d	.	4D'\	4G#'/	12e/L	2.ee\_
.	.	.	.	12g#/	.
.	.	.	.	12b/J	.
.	.	4D'\	4G#'/	12ee\L	.
.	.	.	.	12b\	.
.	.	.	.	12g#\J	.
.	.	4D'\	4G#'/	12e/L	.
.	.	.	.	12g#/	.
.	.	.	.	12b/J	.
=169	=169	=169	=169	=169	=169
ib	.	4C'\	4A'/	12e/L	2.ee\_
.	.	.	.	12a/	.
.	.	.	.	12cc/J	.
.	.	4C'\	4A'/	12ee\L	.
.	.	.	.	12cc\	.
.	.	.	.	12a\J	.
.	.	4C'\	4A'/	12e/L	.
.	.	.	.	12a/	.
.	.	.	.	12cc/J	.
=170	=170	=170	=170	=170	=170
V7b	.	4GG#'/	4B'\	12e/L	4ee\]
.	.	.	.	12g#/	.
.	.	.	.	12b/J	.
.	.	4GG#'/	4B'\	12ee\L	4dd\
.	.	.	.	12dd\	.
.	.	.	.	12b\J	.
.	.	4GG#'/	4B'\	12ee\L	[4dd\
.	.	.	.	12dd\	.
.	.	.	.	12b\J	.
=171	=171	=171	=171	=171	=171
i	.	4AA'/	4E'/	12c/L	4dd\]
.	.	.	.	12e/	.
.	.	.	.	12a/J	.
.	.	4AA'/	4E'/	12cc\L	4cc\
.	.	.	.	12b\	.
.	.	.	.	12a\J	.
.	.	4AA'/	4E'/	12cc\L	[4cc\
.	.	.	.	12b\	.
.	.	.	.	12a\J	.
=172	=172	=172	=172	=172	=172
Gn	.	4F'\	4F'/	12d#/L	4cc\]
.	.	.	.	12a/	.
.	.	.	.	12b/J	.
.	.	4F'\	4F'/	12cc\L	4d#'/
.	.	.	.	12b\	.
.	.	.	.	12a\J	.
.	.	4F'\	4F'/	12cc\L	4d#'/
.	.	.	.	12b\	.
.	.	.	.	12a\J	.
=173	=173	=173	=173	=173	=173
V	.	4E\	4E/	4g#/	4e/
.	.	4r	4r	4e'/	4e'/
.	.	4r	4r	4e'/	4e'/
=174	=174	=174	=174	=174	=174
.	.	2.r	2.r	[2.e/	12e/L
.	.	.	.	.	12g#/
.	.	.	.	.	12a/J
.	.	.	.	.	12b\L
.	.	.	.	.	12a\
.	.	.	.	.	12g#\J
.	.	.	.	.	12a\L
.	.	.	.	.	12b\
.	.	.	.	.	12cc\J
=175	=175	=175	=175	=175	=175
V7	.	12E\L	2b\	2.e/]	2dd\
.	.	12G#\	.	.	.
.	.	12A\J	.	.	.
.	.	12B\L	.	.	.
.	.	12A\	.	.	.
.	.	12G#\J	.	.	.
i	.	12A\L	4a\	.	4cc\
.	.	12B\	.	.	.
.	.	12c\J	.	.	.
=176	=176	=176	=176	=176	=176
V7d	.	2d\	2.r	[2.e/	12e/L
.	.	.	.	.	12g#/
.	.	.	.	.	12a/J
.	.	.	.	.	12b\L
.	.	.	.	.	12a\
.	.	.	.	.	12g#\J
ib	.	4c\	.	.	12a\L
.	.	.	.	.	12b\
.	.	.	.	.	12cc\J
=177	=177	=177	=177	=177	=177
V7	.	12E\L	2b\	2e/]	2dd\
.	.	12G#\	.	.	.
.	.	12A\J	.	.	.
.	.	12B\L	.	.	.
.	.	12A\	.	.	.
.	.	12G#\J	.	.	.
i	.	12A\L	4a\	4cc\	4cc\
.	.	12B\	.	.	.
.	.	12c\J	.	.	.
=178	=178	=178	=178	=178	=178
ivm7	.	12d\L	2a\	2cc\	2.ff\
.	.	12D\	.	.	.
.	.	12E\J	.	.	.
.	.	12F\L	.	.	.
.	.	12G\	.	.	.
.	.	12A\J	.	.	.
-VII7	.	12G\L	8dd\L	[4b\	.
.	.	12A\	.	.	.
.	.	.	8b\J	.	.
.	.	12B\J	.	.	.
=179	=179	=179	=179	=179	=179
IIIM7	.	12c\L	2g\	2b\]	2.ee\
.	.	12C\	.	.	.
.	.	12D\J	.	.	.
.	.	12E\L	.	.	.
.	.	12F\	.	.	.
.	.	12G\J	.	.	.
VIM7	.	12F\L	8cc\L	[4a\	.
.	.	12G\	.	.	.
.	.	.	8a\J	.	.
.	.	12A\J	.	.	.
=180	=180	=180	=180	=180	=180
iiom7	.	12B\L	2f\	2a\]	2.dd\
.	.	12BB\	.	.	.
.	.	12C\J	.	.	.
.	.	12D\L	.	.	.
.	.	12E\	.	.	.
.	.	12F\J	.	.	.
V7	.	12E\L	4e\	12g#\L	.
.	.	12F#\	.	12a\	.
.	.	12G#\J	.	12b\J	.
=181	=181	=181	=181	=181	=181
*	*	*	*	*	*
i	.	4A\	[2.A/	[2.a\	4cc\
.	.	4AA/	.	.	4aa\
?	.	4BB/	.	.	4gg#\
=182	=182	=182	=182	=182	=182
V7b/iv	.	4C#\	2.A/_	2.a\_	4gg\
(IV)	.	2D\	.	.	4ff#\
iv	.	.	.	.	4ff\
=183	=183	=183	=183	=183	=183
V	.	4E\	2.A/]	2.a\]	4ee\
?	.	4F\	.	.	4dd#\
IVb	.	4F#\	.	.	4dd\
=184	=184	=184	=184	=184	=184
V7b	.	4G#\	[2.e\	4b\	4dd\
i	.	4A\	.	4e'/	4cc\
Vc	.	4B\	.	4e'/	4b\
=185	=185	=185	=185	=185	=185
ib	.	4c\	4e\]	4e/	4a'\
V7b/iv	.	4c#'\	4e'\	4g'/	4a'\
.	.	4c#'\	4e'\	4g'/	4a'\
=186	=186	=186	=186	=186	=186
iv	.	4d\	4f'\	4f/	4a\
viio/V	.	4d#'\	4f#'\	4a'\	4cc'\
.	.	4d#'\	4f#'\	4a'\	4cc'\
=187	=187	=187	=187	=187	=187
ic	.	2e\	2e\	2a\	2cc\
V7	.	4E\	4d\	4g#/	12dd\L
.	.	.	.	.	12b\
.	.	.	.	.	12g#\J
=188	=188	=188	=188	=188	=188
i	.	4A\	4c\	4a'\	4a'\
.	.	4r	4r	4a\	4cc\
.	.	4r	4r	4aa\	4ccc\
=189	=189	=189	=189	=189	=189
viioD7c	.	4r	4r	2b\	2gg#\
.	.	4d\	4f\	.	.
ib	.	4c\	4e\	4cc\	4aa\
=190	=190	=190	=190	=190	=190
.	.	4C\	4E/	4r	4r
.	.	4r	4r	4a\	4cc\
.	.	4r	4r	4aa\	4ccc\
=191	=191	=191	=191	=191	=191
viioD7c/iv/iv	.	4r	4r	2a\	2ff#\
.	.	4c\	4e-\	.	.
ivb/iv	.	4B-\	4d\	4b-\	4gg\
=192	=192	=192	=192	=192	=192
.	.	4BB-/	4D/	4r	4r
.	.	4r	4r	4g/	4b-\
.	.	4r	4r	4gg\	4bb-\
=193	=193	=193	=193	=193	=193
viioD7c/III/iv	.	4r	4r	2g/	2ee\
.	.	4B-\	4d-\	.	.
IIIb/iv	.	4A\	4c\	4a\	4ff\
=194	=194	=194	=194	=194	=194
.	.	4r	4r	4ff'\	4aa'\
.	.	4FF/	4A/	4r	4r
.	.	4F\	4a\	4r	4r
=195	=195	=195	=195	=195	=195
viioD7c/iv	.	2C#\	2e\	4r	4r
.	.	.	.	4b-\	4gg\
iv	.	4D\	4f\	4a\	4ff\
=196	=196	=196	=196	=196	=196
*d:	*d:	*d:	*d:	*d:	*d:
i[iv]	.	4r	4r	4ff'\	4ddd'\
.	.	4DD/	4F/	4r	4r
.	.	4D\	4f\	4r	4r
=197	=197	=197	=197	=197	=197
viioD7/VII	.	2BB/	2d\	4r	4r
.	.	.	.	4a-\	4ff\
VII	.	4C\	4e\	4g/	4ee\
=198	=198	=198	=198	=198	=198
.	.	4r	4r	4ee'\	4ccc'\
.	.	4C\	4E/	4r	4r
.	.	4c\	4e\	4r	4r
=199	=199	=199	=199	=199	=199
viioD7/v	.	2G#\	2B\	4r	4r
.	.	.	.	4f/	4dd\
v	.	4A\	4c\	4e/	4cc\
=200	=200	=200	=200	=200	=200
viioD7/iv	.	2F#\	2A/	4r	4r
.	.	.	.	4e-/	4cc\
iv	.	4G\	4B-\	4d/	4b-\
=201	=201	=201	=201	=201	=201
V7b/III	.	2E\	2G/	4r	4r
.	.	.	.	4c'/	4b-\
III	.	4F\	4A/	4c'/	4a\
=202	=202	=202	=202	=202	=202
V7b/ii	.	2D\	2F/	4r	4r
.	.	.	.	4B-'/	4a\
ii	.	4E\	4G/	4B-'/	4g/
=203	=203	=203	=203	=203	=203
V7b	.	2C#\	2E/	4r	4r
.	.	.	.	4A'/	4g/
i	.	4D\	8F/L	4A'/	4f/
.	.	.	8D/J	.	.
=204	=204	=204	=204	=204	=204
V	.	4AA/	4C#/	4A/	4e/
.	.	4AA'/	4A'/	4A'/	4A'/
.	.	4AA'/	4A'/	4A'/	4A'/
=205	=205	=205	=205	=205	=205
.	.	4AA'/	4A'/	4A'/	4A'/
.	.	4r	4r	4r	4r
.	.	4r	4r	4r	4r
=206	=206	=206	=206	=206	=206
.	.	2.r	2.r	2.r	2.r
=207	=207	=207	=207	=207	=207
*F:	*F:	*F:	*F:	*F:	*F:
I[III]	.	4FF'/	4F'/	4F'/	4F'/
.	.	4FF'/	4F'/	4F'/	4F'/
.	.	4FF'/	4F'/	4F'/	4F'/
=208	=208	=208	=208	=208	=208
.	.	[2.FF/	2.F/	2.F/	2.F/
=209	=209	=209	=209	=209	=209
viio	Pedal G in the bass	2.FF/_	2.E/	2.G/	2.B-/
=210	=210	=210	=210	=210	=210
I	.	2.FF/]	[2.F/	4F/	4A/
.	.	.	.	4B-/	4d/
.	.	.	.	4A/	4c/
=211	=211	=211	=211	=211	=211
.	.	4FF/	4F/]	2A/	2f/
.	.	4FF'/	4F'/	.	.
.	.	4FF'/	4F'/	16c/LL	16e/LL
.	.	.	.	16B-/	16d/
.	.	.	.	16A/	16c/
.	.	.	.	16B-/JJ	16d/JJ
=212	=212	=212	=212	=212	=212
.	.	4FF'/	4F'/	4A/	4c/
.	.	4r	4r	4r	4r
.	.	4r	4r	4r	4r
=213	=213	=213	=213	=213	=213
.	.	4f'\	4f'\	4cc'\	4aa'\
.	.	4f'\	4f'\	4cc'\	4aa'\
.	.	4f'\	4f'\	4cc'\	4aa'\
=214	=214	=214	=214	=214	=214
V7c/vi	.	2.e\	[2.a\	2.cc#\	2gg\
.	.	.	.	.	8aa\L
.	.	.	.	.	8ee\J
=215	=215	=215	=215	=215	=215
vi	.	4d\	4a\]	4dd\	4ff\
V7b/V	.	4B'\	4g'\	4dd'\	4ff'\
.	.	4B'\	4g'\	4dd'\	4ff'\
=216	=216	=216	=216	=216	=216
.	.	4B'\	4g'\	4dd'\	4ff'\
.	.	4r	4r	4r	4r
.	.	4r	4r	4r	4r
=217	=217	=217	=217	=217	=217
*C:	*C:	*C:	*C:	*C:	*C:
I[V]	.	4CC'/	4C'/	4c'/	4c'/
.	.	4CC'/	4C'/	4c'/	4c'/
.	.	4CC'/	4C'/	4c'/	4c'/
=218	=218	=218	=218	=218	=218
.	.	[2.CC/	2.C/	2.c/	2.c/
=219	=219	=219	=219	=219	=219
V7	Pedal D in the bass	2.CC/_	[2.G/	2.B/	2.f/
=220	=220	=220	=220	=220	=220
I	.	2.CC/]	4G/]	4c/	4e/
IVc	.	.	4BB/	4f/	4a\
I	.	.	4C/	4e/	4g/
=221	=221	=221	=221	=221	=221
I	.	4CC'/	4C'/	2e/	2cc\
.	.	4CC'/	4C'/	.	.
IVc	.	4CC'/	4C'/	16g/LL	16b\LL
.	.	.	.	16f/	16a\
.	.	.	.	16e/	16g\
.	.	.	.	16f/JJ	16a\JJ
=222	=222	=222	=222	=222	=222
I	.	4CC/	4C/	4e/	4g/
.	.	4r	4r	4r	4r
.	.	4r	4r	4r	4r
=223	=223	=223	=223	=223	=223
ii	.	4DD'/	4D'/	4d'/	4d'/
.	.	4DD'/	4D'/	4d'/	4d'/
.	.	4DD'/	4D'/	4d'/	4d'/
=224	=224	=224	=224	=224	=224
.	.	2DD/	[2.D/	2d/	4d/
.	.	.	.	.	4f/
iim7d	.	4CC/	.	[4f/	4a\
=225	=225	=225	=225	=225	=225
V7b	.	2BBB/	4D/]	4f/]	[2.g/
.	.	.	4G'/	4d/	.
I	.	4CC/	4G'/	[4e/	.
=226	=226	=226	=226	=226	=226
IV	.	2.FF/	2.A/	4e/]	4g/]
.	.	.	.	4f/	4a\
iib	.	.	.	4d/	4f/
=227	=227	=227	=227	=227	=227
*	*	*	*	*	*
Ic	.	2.GG/	2G/	2c/	2e/
V7	.	.	4F/	4B/	8f/L
.	.	.	.	.	8d/J
=228	=228	=228	=228	=228	=228
vi	.	4AA/	4E/	4c/	4c/
.	.	4r	4r	4r	4r
.	.	4r	4r	4r	4r
=229	=229	=229	=229	=229	=229
IV/IV	.	4BBB-'/	4BB-'/	4B-'/	4B-'/
.	.	4BBB-'/	4BB-'/	4B-'/	4B-'/
.	.	4BBB-'/	4BB-'/	4B-'/	4B-'/
=230	=230	=230	=230	=230	=230
V7b/IV	.	2EE/	2.C/	2G/	2B-/
IV	.	4FF/	.	4F/	4A/
=231	=231	=231	=231	=231	=231
ii	.	4DD'/	4D'/	4A'/	4f'/
.	.	4DD'/	4D'/	4A'/	4f'/
.	.	4DD'/	4D'/	4A'/	4f'/
=232	=232	=232	=232	=232	=232
Vb/ii	.	4CC#/	4C#/	2A/	4e/
ii	.	4DD/	4D/	.	4f/
viioD7	.	4BBB/	4BB/	4f/	4a\
=233	=233	=233	=233	=233	=233
I	.	4CC/	4C/	4e/	4g/
iib	.	4FF/	4F/	4d/	4f/
viioD7/V	.	4FF#/	4F#/	4c/	4e/
=234	=234	=234	=234	=234	=234
V	.	4GG/	4G/	4B/	4d/
.	.	4r	4r	4r	4g/
.	.	4r	4g\	4r	4g/
=235	=235	=235	=235	=235	=235
.	.	2.r	[2.g\	2.r	12g\L
.	.	.	.	.	12b\
.	.	.	.	.	12cc\J
.	.	.	.	.	12dd\L
.	.	.	.	.	12cc\
.	.	.	.	.	12b\J
.	.	.	.	.	12cc\L
.	.	.	.	.	12dd\
.	.	.	.	.	12ee\J
=236	=236	=236	=236	=236	=236
V7	.	12G\L	2.g\]	2dd\	2ff\
.	.	12B\	.	.	.
.	.	12c\J	.	.	.
.	.	12d\L	.	.	.
.	.	12c\	.	.	.
.	.	12B\J	.	.	.
I	.	12c\L	.	4cc\	4ee\
.	.	12d\	.	.	.
.	.	12e\J	.	.	.
=237	=237	=237	=237	=237	=237
V7d	.	2f\	[2.G/	2.r	12G/L
.	.	.	.	.	12B/
.	.	.	.	.	12c/J
.	.	.	.	.	12d/L
.	.	.	.	.	12c/
.	.	.	.	.	12B/J
Ib	.	4e\	.	.	12c/L
.	.	.	.	.	12d/
.	.	.	.	.	12e/J
=238	=238	=238	=238	=238	=238
V7	.	12GG/L	2.G/]	2d/	2f/
.	.	12BB/	.	.	.
.	.	12C/J	.	.	.
.	.	12D\L	.	.	.
.	.	12C\	.	.	.
.	.	12BB\J	.	.	.
I	.	12C\L	.	4e/	4e/
.	.	12D\	.	.	.
.	.	12E\J	.	.	.
=239	=239	=239	=239	=239	=239
IVM7	.	[2.F\	12A\L	4e/	2.a\
.	.	.	12B\	.	.
.	.	.	12c\J	.	.
iib	.	.	12d\L	4d/	.
.	.	.	12f\	.	.
.	.	.	12e\J	.	.
.	.	.	12d\L	4d/	.
.	.	.	12e\	.	.
.	.	.	12c\J	.	.
=240	=240	=240	=240	=240	=240
V7d	.	2.F\]	2B\	2.d/	12g\L
.	.	.	.	.	12b\
.	.	.	.	.	12a\J
.	.	.	.	.	12g\L
.	.	.	.	.	12b\
.	.	.	.	.	12cc\J
.	.	.	[4G/	.	12dd\L
.	.	.	.	.	12ee\
.	.	.	.	.	12ff\J
=241	=241	=241	=241	=241	=241
Ib	.	2.E\	4G/]	4c/	[2.gg\
.	.	.	4c\	4e/	.
.	.	.	4c\	4g/	.
=242	=242	=242	=242	=242	=242
IV	.	[2.F\	2c\	[2.a\	4gg\]
.	.	.	.	.	4ff\
.	.	.	4c#\	.	4ee\
=243	=243	=243	=243	=243	=243
*	*	*	*	*	*
ii	.	4F\]	[2.d\	4a\]	[2.ff\
.	.	4E\	.	4g/	.
.	.	4D\	.	4f/	.
=244	=244	=244	=244	=244	=244
Ib	.	[2.E\	12d\L]	[2.g/	12ff\L]
.	.	.	12e\	.	12gg\
.	.	.	12d\J	.	12ff\J
.	.	.	12c\L	.	12ee\L
.	.	.	12d\	.	12ff\
.	.	.	12c\J	.	12ee\J
.	.	.	12B\L	.	12dd\L
.	.	.	12c\	.	12ee\
.	.	.	12d\J	.	12ff\J
=245	=245	=245	=245	=245	=245
.	.	12E\L]	[2.c\	12g/L]	[2.ee\
.	.	12F\	.	12a/	.
.	.	12E\J	.	12g/J	.
.	.	12D\L	.	12f/L	.
.	.	12E\	.	12g/	.
.	.	12D\J	.	12f/J	.
.	.	12C\L	.	12e/L	.
.	.	12D\	.	12f/	.
.	.	12E\J	.	12g/J	.
=246	=246	=246	=246	=246	=246
iim7b	.	[2.D\	4c\]	[2.f/	12ee\L]
.	.	.	.	.	12dd\
.	.	.	.	.	12ee\J
V7c	.	.	4B\	.	12ff\L
.	.	.	.	.	12ee\
.	.	.	.	.	12dd\J
.	.	.	4B\	.	12cc\L
.	.	.	.	.	12b\
.	.	.	.	.	12a\J
=247	=247	=247	=247	=247	=247
.	.	2.D\_	[2.B\	2.f/_	4g/
.	.	.	.	.	4g'/
.	.	.	.	.	4g'/
=248	=248	=248	=248	=248	=248
.	.	2.D\]	2.B\]	2.f/]	[2.g/
=249	=249	=249	=249	=249	=249
Ib	.	2.E\	4c\	4e/	4g/]
.	.	.	4c'\	4cc'\	4ccc\
V7/IV	.	.	4c'\	4cc'\	4bb\
=250	=250	=250	=250	=250	=250
IV	.	4F\	2.cc\	2.cc\	4bb\
.	.	4f\	.	.	4aa\
Ib	.	4e\	.	.	[4gg\
=251	=251	=251	=251	=251	=251
V7c	.	2d\	2f\	2b\	4gg\]
.	.	.	.	.	12aa\L
.	.	.	.	.	12ff\
.	.	.	.	.	12dd\J
I	.	4c\	4e\	4cc\	[4ee\
=252	=252	=252	=252	=252	=252
iib	.	2F\	2f\	2a\	4ee\]
.	.	.	.	.	4dd\
V7	.	4G\	4d\	4f/	12ff\L
.	.	.	.	.	12dd\
.	.	.	.	.	12b\J
=253	=253	=253	=253	=253	=253
I	.	4C\	4c\	4e/	4cc\
.	.	4r	4r	4r	4r
.	.	4r	4r	4r	4r
=254	=254	=254	=254	=254	=254
viio/ii	.	4C#'\	4c#'\	4c#'/	4c#'/
.	.	4C#'\	4c#'\	4c#'/	4c#'/
.	.	4C#'\	4c#'\	4c#'/	4c#'/
=255	=255	=255	=255	=255	=255
.	.	4C#\	4c#\	4c#/	4c#/
ii	.	4D\	4d\	4d/	4d/
.	.	4FF/	4F/	[4f/	[4a\
=256	=256	=256	=256	=256	=256
Ic	.	2.GG/	2G/	4f/]	4a\]
.	.	.	.	4e/	4g/
V7	.	.	4F/	4d/	4B/
=257	=257	=257	=257	=257	=257
I	.	4C'\	4E'/	4c'/	4c'/
.	.	4C'\	4c'\	4c'/	4c'/
.	.	4C'\	4c'\	4c'/	4c'/
=258	=258	=258	=258	=258	=258
.	.	4.C\	4.c\	4.c/	4.c/
.	.	16D\LL	16d\LL	16d/LL	16d/LL
.	.	16E\JJ	16e\JJ	16e/JJ	16e/JJ
.	.	16F\LL	16f\LL	16f/LL	16f/LL
.	.	16G\	16g\	16g/	16g/
.	.	16A\	16a\	16a/	16a/
.	.	16B\JJ	16b\JJ	16b/JJ	16b/JJ
=259	=259	=259	=259	=259	=259
.	.	4c'\	4cc'\	4cc'\	4cc'\
.	.	4E'\	4cc'\	4g'/	4.ccc\
.	.	4r	4r	4r	.
.	.	.	.	.	8bb\
=260	=260	=260	=260	=260	=260
.	.	4r	4r	4r	4bb'\
viioD7b/ii	.	2E\	2c#\	2g/	2bb-\
=261	=261	=261	=261	=261	=261
iib	.	4F\	4d\	4f/	12aa\L
.	.	.	.	.	12gg\
.	.	.	.	.	12ff\J
.	.	4r	4r	4r	12ee\L
.	.	.	.	.	12dd\
.	.	.	.	.	12ff\J
.	.	4r	4r	4r	12ee\L
.	.	.	.	.	12dd\
.	.	.	.	.	12cc\J
=262	=262	=262	=262	=262	=262
V7d	.	4F\	4G/	4d/	12cc\L
.	.	.	.	.	12b\
.	.	.	.	.	12cc\J
.	.	4r	4r	4r	12dd\L
.	.	.	.	.	12cc\
.	.	.	.	.	12b\J
.	.	4r	4r	4r	12a\L
.	.	.	.	.	12g\
.	.	.	.	.	12dd\J
=263	=263	=263	=263	=263	=263
*	*	*	*	*	*
.	.	4F'\	4G'/	4d'/	12b\L
.	.	.	.	.	12g\
.	.	.	.	.	12dd\J
.	.	4F'\	4G'/	4d'/	12b\L
.	.	.	.	.	12g\
.	.	.	.	.	12dd\J
.	.	4F'\	4G'/	8.d/L	12b\L
.	.	.	.	.	12g\
.	.	.	.	.	12dd\J
.	.	.	.	16B/Jk	.
=264	=264	=264	=264	=264	=264
Ib	.	4E\	4G/	4c/	12cc\L
.	.	.	.	.	12ccc\
.	.	.	.	.	12bb\J
.	.	4r	4r	4r	12aa\L
.	.	.	.	.	12gg\
.	.	.	.	.	12ff\J
.	.	4r	4r	4r	12ee\L
.	.	.	.	.	12dd\
.	.	.	.	.	12cc\J
=265	=265	=265	=265	=265	=265
V7d	.	4F'\	4G'/	4d'/	12b\L
.	.	.	.	.	12g\
.	.	.	.	.	12dd\J
.	.	4F'\	4G'/	4d'/	12b\L
.	.	.	.	.	12g\
.	.	.	.	.	12dd\J
.	.	4F'\	4G'/	8.d/L	12b\L
.	.	.	.	.	12g\
.	.	.	.	.	12dd\J
.	.	.	.	16B/Jk	.
=266	=266	=266	=266	=266	=266
Ib	.	4E\	4G/	4c/	12cc\L
.	.	.	.	.	12ccc\
.	.	.	.	.	12bb\J
.	.	4r	4r	4r	12aa\L
.	.	.	.	.	12gg\
.	.	.	.	.	12ff\J
.	.	4r	4r	4r	12ee\L
.	.	.	.	.	12dd\
.	.	.	.	.	12cc\J
=267	=267	=267	=267	=267	=267
V7d	.	4F'\	4G'/	4d'/	12b\L
.	.	.	.	.	12g\
.	.	.	.	.	12dd\J
.	.	4F'\	4G'/	4d'/	12b\L
.	.	.	.	.	12g\
.	.	.	.	.	12dd\J
.	.	4F'\	4G'/	8.d/L	12b\L
.	.	.	.	.	12g\
.	.	.	.	.	12dd\J
.	.	.	.	16B/Jk	.
=268	=268	=268	=268	=268	=268
Ib	.	12E\L	12c\L	12c/L	12cc/L
.	.	12C\	12c\	12c/	12c/
.	.	12D\J	12d\J	12d/J	12d/J
.	.	12E\L	12e\L	12e/L	12e/L
.	.	12C\	12c\	12c/	12c/
.	.	12E\J	12e\J	12e/J	12e/J
.	.	12G\L	12g\L	12g/L	12g/L
.	.	12E\	12e\	12e/	12e/
.	.	12G\J	12g\J	12g/J	12g/J
=269	=269	=269	=269	=269	=269
IV/IV	.	4B-'\	4b-'\	4b-'\	4b-'\
.	.	4r	4r	4r	4r
.	.	4r	4r	4r	4r
=270	=270	=270	=270	=270	=270
IV	.	4FF/	4F/	4r	4r
.	.	4r	4r	4f/	4a\
.	.	4r	4r	4ff\	4aa\
=271	=271	=271	=271	=271	=271
viio/ii	.	2.r	2.r	2cc#\	2ee\
ii	.	.	.	4dd\	4ff\
=272	=272	=272	=272	=272	=272
V7c/IV	.	2.G\	2e\	2g/	2cc\
.	.	.	4d\	4f/	8dd\L
.	.	.	.	.	8b\J
=273	=273	=273	=273	=273	=273
V/IV	.	4C\	4c\	4e/	4cc\
.	.	4r	4r	4cc\	4ee\
.	.	4r	4r	4dd\	4ff\
=274	=274	=274	=274	=274	=274
.	.	2.r	2.r	4ee\	4gg\
.	.	.	.	4aa\	4ccc\
.	.	.	.	4gg\	4bb-\
=275	=275	=275	=275	=275	=275
IV	.	4r	4r	4ff\	4aa\
.	.	4F\	4A/	4r	4r
.	.	4f\	4a\	4r	4r
=276	=276	=276	=276	=276	=276
viio/ii	.	2c#\	2e\	4r	4r
.	.	.	.	4b-\	4gg\
ii	.	4d\	4f\	4a\	4ff\
=277	=277	=277	=277	=277	=277
viioD7	.	2B\	2d\	4r	4r
.	.	.	.	4a-\	4ff\
I	.	4c\	4e\	8g\L	4ee\
.	.	.	.	8ee\J	.
=278	=278	=278	=278	=278	=278
viio/ii	Pedal G in the bass	[2.F\	4c#\	4ee\	[2.aa\
iib	.	.	4d\	4dd\	.
iim7b	.	.	4d\	4cc\	.
=279	=279	=279	=279	=279	=279
*	*	*	*	*	*
V7d	.	2.F\_	[2.d\	[2.b\	8aa\L]
.	.	.	.	.	8gg\J
.	.	.	.	.	8ff#\L
.	.	.	.	.	8gg\J
.	.	.	.	.	8ff#\L
.	.	.	.	.	8gg\J
=280	=280	=280	=280	=280	=280
.	.	2.F\]	2.d\]	2.b\]	[2.gg\
=281	=281	=281	=281	=281	=281
I	.	[2.E\	[2.c\	[2.cc\	4gg\]
.	.	.	.	.	4ccc\
.	.	.	.	.	4bb\
=282	=282	=282	=282	=282	=282
.	.	4E\]	2.c\_	2.cc\_	4bb-\
IV	.	2F\	.	.	4aa\
.	.	.	.	.	4aa-\
=283	=283	=283	=283	=283	=283
.	.	4G\	2.c\]	2.cc\]	4gg\
.	.	4A\	.	.	4ff#\
.	.	4A-\	.	.	4ff\
=284	=284	=284	=284	=284	=284
Ic	.	2.G\	2c\	2g/	2ee\
V7	.	.	4d\	4f/	12ff\L
.	.	.	.	.	12dd\
.	.	.	.	.	12b\J
=285	=285	=285	=285	=285	=285
I	.	4C\	4c\	4e/	4cc\
.	.	4r	4r	12r	12r
IV	.	.	.	12ff\L	12aa\L
.	.	.	.	12gg\J	12bb\J
.	.	4r	4r	12aa\L	12ccc\L
.	.	.	.	12gg\	12bb\
.	.	.	.	12ff\J	12aa\J
=286	=286	=286	=286	=286	=286
iii	.	4r	4r	4ee'\	4gg'\
ii	.	12r	12r	4r	4r
.	.	12d\L	12f\L	.	.
.	.	12e\J	12g\J	.	.
.	.	12f\L	12a\L	4r	4r
.	.	12e\	12g\	.	.
.	.	12d\J	12f\J	.	.
=287	=287	=287	=287	=287	=287
*	*	*	*	*	*
I	.	4c'\	4e'\	4r	4r
ii	.	12r	12r	12r	12r
.	.	12D\L	12f\L	12ff\L	12aa\L
.	.	12E\J	12g\J	12ee\J	12gg\J
.	.	12F\L	12a\L	12dd\L	12ff\L
.	.	12E\	12g\	12ee\	12gg\
.	.	12D\J	12f\J	12ff\J	12aa\J
=288	=288	=288	=288	=288	=288
Ic	.	4G'\	4g'\	4cc'\	4ee'\
.	.	4r	4r	4r	4r
V7	.	4GG/	4f\	4b\	16ee\LL
.	.	.	.	.	16dd\
.	.	.	.	.	16cc\
.	.	.	.	.	16dd\JJ
=289	=289	=289	=289	=289	=289
I	.	4C'\	4e'\	4cc'\	4cc'\
.	.	12r	12r	4r	4r
.	.	12e\L	12g\L	.	.
.	.	12d\J	12f\J	.	.
.	.	12c\L	12e\L	4r	4r
.	.	12d\	12f\	.	.
.	.	12e\J	12g\J	.	.
=290	=290	=290	=290	=290	=290
IV	.	4f'\	4a'\	4r	4r
V	.	4r	4r	12r	12r
.	.	.	.	12b\L	12dd\L
.	.	.	.	12a\J	12cc\J
.	.	4r	4r	12g\L	12b\L
.	.	.	.	12a\	12cc\
.	.	.	.	12b\J	12dd\J
=291	=291	=291	=291	=291	=291
*	*	*	*	*	*
I	.	4r	4r	4cc'\	4ee'\
ii	.	12r	12r	12r	12r
.	.	12F\L	12a\L	12dd\L	12ff\L
.	.	12E\J	12g\J	12ee\J	12gg\J
.	.	12D\L	12f\L	12ff\L	12aa\L
.	.	12E\	12g\	12ee\	12gg\
.	.	12F\J	12a\J	12dd\J	12ff\J
=292	=292	=292	=292	=292	=292
Ic	.	4G'\	4g'\	4cc'\	4ee'\
.	.	4r	4r	4r	4r
V7	.	4GG/	4f\	4b\	16ee\LL
.	.	.	.	.	16dd\
.	.	.	.	.	16cc\
.	.	.	.	.	16dd\JJ
=293	=293	=293	=293	=293	=293
I	.	4C\	4e'\	4cc'\	4cc'\
.	.	4r	4r	4r	4cc'\
iii	.	16G\LL	16b\LL	4r	4cc'\
.	.	16F\	16a\	.	.
.	.	16E\	16g\	.	.
.	.	16F\JJ	16a\JJ	.	.
=294	=294	=294	=294	=294	=294
Ib	.	4E\	4g\	4r	[2.cc\
.	.	4r	4r	4c/	.
.	.	16E\LL	16g\LL	4r	.
.	.	16D\	16f\	.	.
.	.	16C\	16e\	.	.
.	.	16D\JJ	16f\JJ	.	.
=295	=295	=295	=295	=295	=295
.	.	4C\	4e\	4r	2.cc\_
.	.	4r	4r	4c/	.
v	.	4r	16b-\LL	16dd\LL	.
.	.	.	16a\	16cc\	.
.	.	.	16g\	16b-\	.
.	.	.	16a\JJ	16cc\JJ	.
=296	=296	=296	=296	=296	=296
.	.	4r	4g\	4b-\	2.cc\_
I	.	4C\	4e\	4g/	.
viio/IV	.	4r	16g\LL	16b-\LL	.
.	.	.	16f\	16a\	.
.	.	.	16e\	16g\	.
.	.	.	16f\JJ	16a\JJ	.
=297	=297	=297	=297	=297	=297
Ib	.	4r	4e\	4g/	4cc\]
I	.	4C'\	4c'\	4c'/	4c'/
.	.	4C'\	4c'\	4c'/	4c'/
=298	=298	=298	=298	=298	=298
.	.	2C\	2c\	2c/	2c/
N/vi	.	4BB-/	4B-\	4B-/	4B-/
=299:|!	=299:|!	=299:|!	=299:|!	=299:|!	=299:|!
I	.	4C\	4e'\	4cc'\	4cc\
.	.	4r	4r	4r	4cc'\
iii	.	16G\LL	16b\LL	4r	4cc'\
.	.	16F\	16a\	.	.
.	.	16E\	16g\	.	.
.	.	16F\JJ	16a\JJ	.	.
=300	=300	=300	=300	=300	=300
I	.	4E\	4g\	4r	[2.cc\
.	.	4r	4r	4c/	.
.	.	16E\LL	16g\LL	4r	.
.	.	16D\	16f\	.	.
.	.	16C\	16e\	.	.
.	.	16D\JJ	16f\JJ	.	.
=301	=301	=301	=301	=301	=301
*	*	*	*	*	*
.	.	4C\	4e\	4r	4cc\]
.	.	4r	4r	4c/	4c/
iii	.	4r	4r	16g/LL	16b\LL
.	.	.	.	16f/	16a\
.	.	.	.	16e/	16g\
.	.	.	.	16f/JJ	16a\JJ
=302	=302	=302	=302	=302	=302
I	Tonic until the end	4r	4r	4e/	4g/
.	.	4CC/	4C/	4r	4r
.	.	4r	4r	16e/LL	16g/LL
.	.	.	.	16d/	16f/
.	.	.	.	16c/	16e/
.	.	.	.	16d/JJ	16f/JJ
=303	=303	=303	=303	=303	=303
.	.	4r	4r	4c/	4e/
.	.	4CC/	4r	4r	4r
.	.	4r	16G/LL	4r	16e/LL
.	.	.	16F/	.	16d/
.	.	.	16E/	.	16c/
.	.	.	16F/JJ	.	16d/JJ
=304	=304	=304	=304	=304	=304
.	.	4r	4E/	4c/	4c/
.	.	4CC'/	4E'/	4c'/	4c'/
.	.	4CC'/	4E'/	4c'/	4c'/
=305	=305	=305	=305	=305	=305
*	*	*	*	*	*
.	.	4CC/	4E/	4c/	4c/
.	.	4r	4r	4r	4r
.	.	4r	4r	4r	4r
==	==	==	==	==	==
*-	*-	*-	*-	*-	*-
